X: 19100
T: Irish Lamentation
R: waltz
M: 3/4
K: Gmajor
{c/}B2 B2 {c/}B>c|{A}B3 {A/c/}A G2|{f/}g2 {G/}A2 {c/}A{B/c/}B|{G/}A4 {F/}G>A|
{c/}B2 {d/}c>B A>{B/A/}G|E>{F/}E D2 {A/}B>{A/B/}A|G2 {A/}G2 {A/}G>{A/B/}A|G4:|
{A}B2 d2 d2|{e}d{e/f/}e dB A>B|G2 {f/}g2 {a/}g{a/b/}a|g4:|
{a}=f>e {a}f>{a}g f>g|{e/f/}e>d {a}e>{a}g {a}e>g|d2 {a}ed c{B/c/}B|A4 {F/}G>A|
{A/}B2 d>B A>{/B/A/}G|E>{F}E D2 {B/A/}BA|G2 {A/}G2 {A/}G>{A/B/}A|G4||
B2 B2 Bc|B3 A G2|g2 A2 AB|A4 GA|
B2 cB AG|EE D2 BA|G2 G2 GA|G4:|
B2 d2 d2|de dB AB|G2 g2 ga|g4:|
=fe fg fg|ed eg eg|d2 ed cB|A4 GA|
B2 dB AG|EE D2 BA|G2 G2 GA|G4||

